assets/images/japan/icon-solution.svg

<svg width="100" height="100" viewBox="0 0 100 100" fill="none" xmlns="http://www.w3.org/2000/svg">
<path fill-rule="evenodd" clip-rule="evenodd" d="M44.4358 99.9799C39.4569 99.9799 35.4034 95.9264 35.4034 90.9475V90.7262L35.1921 90.6156C33.4923 90.0624 32.3456 88.4832 32.3456 86.7029V84.7214H32.0439C31.3499 84.7214 30.8168 84.1983 30.8168 83.5446C30.8168 82.8908 31.3398 82.3677 31.9936 82.3677H32.2953L32.3456 82.066V78.6059H27.417C26.7733 78.6059 26.2402 78.0829 26.2402 77.4291C26.2402 76.7753 26.7633 76.2523 27.417 76.2523H28.8755L28.6542 75.8097C28.5637 75.6387 28.4933 75.4677 28.4229 75.2867L24.8321 65.7011C23.8162 62.9954 22.2471 60.4808 20.1851 58.2378C14.1702 51.7401 10.9113 43.2609 11.0018 34.3794C11.0722 27.6202 13.0638 21.1024 16.7653 15.52C16.9865 15.1881 17.3486 14.997 17.7409 14.997C17.9723 14.997 18.1935 15.0674 18.3847 15.1881C18.6462 15.3591 18.8272 15.6206 18.8876 15.9324C18.9479 16.2342 18.8876 16.556 18.7166 16.8075C15.2666 22.0177 13.4058 28.0929 13.3454 34.3995C13.265 42.6775 16.3026 50.5834 21.9051 56.6687C24.1783 59.143 25.9083 61.9091 27.0248 64.9065L30.6156 74.4921C31.0179 75.5582 32.0539 76.2824 33.2006 76.2824H39.8391C40.4828 76.2824 41.0159 76.8055 41.0159 77.4593C41.0159 78.1131 40.4929 78.6361 39.8391 78.6361H34.6993V82.3979H56.7673V78.6361H46.719C46.0753 78.6361 45.5422 78.1131 45.5422 77.4593C45.5422 76.8055 46.0652 76.2824 46.719 76.2824H58.266C59.4126 76.2824 60.4486 75.5683 60.851 74.4921L64.301 65.2987C65.518 62.0398 67.2883 59.1531 69.5414 56.6989C75.0734 50.7041 78.1211 42.8988 78.1211 34.7415C78.1211 16.8779 63.5868 2.35365 45.7333 2.35365C37.1435 2.35365 29.0666 5.65279 22.9813 11.6476C22.76 11.8688 22.4683 11.9795 22.1565 11.9795C21.8447 11.9795 21.543 11.8588 21.3217 11.6274C21.1004 11.4062 20.9797 11.1044 20.9797 10.7926C20.9797 10.4808 21.1105 10.1891 21.3317 9.96781C27.8596 3.54054 36.5299 0 45.7333 0C64.8843 0 80.4647 15.5804 80.4647 34.7314C80.4647 43.4923 77.1958 51.8507 71.2613 58.2881C69.2094 60.511 67.6001 63.1463 66.4836 66.1135L63.0336 75.3068C62.9632 75.4878 62.8827 75.6588 62.8023 75.8298L62.581 76.2724H64.0395C64.6832 76.2724 65.2163 76.7954 65.2163 77.4492C65.2163 78.103 64.6932 78.626 64.0395 78.626H59.1109V82.3879H59.4126C60.1066 82.3879 60.6397 82.9109 60.6397 83.5647C60.6397 84.2185 60.1167 84.7415 59.4629 84.7415H59.1612L59.1109 85.0433V86.723C59.1109 88.5134 57.9642 90.0825 56.2644 90.6357L56.0531 90.7061V90.9274C56.0531 95.9465 51.9996 100 47.0207 100H44.4257L44.4358 99.9799ZM37.747 91.1386C37.8475 94.7194 40.8449 97.6363 44.4358 97.6363H47.0308C50.6216 97.6363 53.619 94.7194 53.7196 91.1386V90.8268H37.757V91.1386H37.747ZM34.6993 86.7129C34.6993 87.6886 35.4939 88.4832 36.4695 88.4832H54.9869C55.9626 88.4832 56.7572 87.6886 56.7572 86.7129V84.7314H34.6993V86.7129ZM82.275 16.8276C81.8626 16.8276 81.4904 16.6164 81.2792 16.2744C81.1183 16.0129 81.0579 15.6911 81.1384 15.3893C81.2088 15.0876 81.3999 14.826 81.6614 14.6651L84.2565 13.0558C84.4476 12.9451 84.6588 12.8747 84.87 12.8747C85.2824 12.8747 85.6546 13.0859 85.8658 13.4279C86.0267 13.6894 86.0871 14.0113 86.0066 14.3131C85.9362 14.6148 85.7451 14.8763 85.4836 15.0373L82.8885 16.6466C82.6974 16.7572 82.4862 16.8276 82.275 16.8276ZM75.7174 9.60577C75.8884 9.69629 76.0795 9.74658 76.2706 9.74658H76.2807C76.7132 9.74658 77.1155 9.50518 77.3167 9.12297L78.7551 6.43739C78.9059 6.15576 78.9361 5.84395 78.8456 5.5422C78.7551 5.24045 78.5438 4.99905 78.2723 4.84817C78.1013 4.75765 77.9102 4.70736 77.719 4.70736C77.2865 4.70736 76.8842 4.94876 76.683 5.33097L75.2447 8.01655C75.0938 8.29818 75.0636 8.60999 75.1542 8.91174C75.2346 9.21349 75.4459 9.45489 75.7174 9.60577ZM85.7655 25.4275C85.1218 25.4275 84.5987 24.9045 84.5987 24.2708C84.5987 23.6271 85.1117 23.094 85.7555 23.0839L88.8031 23.0538C89.4569 23.0538 89.98 23.5768 89.99 24.2105C89.99 24.5223 89.8693 24.814 89.6581 25.0453C89.4368 25.2666 89.1451 25.3974 88.8333 25.3974L85.7856 25.4275H85.7756H85.7655ZM39.1755 58.1875C40.5435 59.5554 42.3741 60.3098 44.3153 60.3098L44.2952 60.2997C46.2365 60.2997 48.0671 59.5453 49.435 58.1774L53.8305 53.7819C54.0518 53.5606 54.1725 53.2689 54.1725 52.9571C54.1725 52.6453 54.0518 52.3536 53.8305 52.1323C53.6092 51.9111 53.3176 51.7904 53.0057 51.7904C52.6939 51.7904 52.4022 51.9111 52.181 52.1323L47.7855 56.5278C46.85 57.4633 45.6129 57.9762 44.2952 57.9762C42.9776 57.9762 41.7404 57.4633 40.805 56.5278L30.0224 45.7453C29.087 44.8099 28.574 43.5727 28.574 42.2551C28.574 40.9374 29.087 39.7002 30.0224 38.7648C30.9579 37.8394 32.195 37.3265 33.5127 37.3265C34.8303 37.3265 36.0776 37.8394 37.0029 38.7648L43.4805 45.2424C43.7018 45.4637 43.9935 45.5844 44.3053 45.5844C44.6171 45.5844 44.9088 45.4637 45.1301 45.2424L58.0751 32.2973C59.0106 31.3719 60.2477 30.859 61.5654 30.859C62.883 30.859 64.1303 31.3719 65.0556 32.2973C65.981 33.2327 66.494 34.4699 66.494 35.7875C66.494 37.1052 65.981 38.3524 65.0556 39.2778L57.0995 47.2339C56.8782 47.4552 56.7575 47.7469 56.7575 48.0587C56.7575 48.3705 56.8782 48.6622 57.0995 48.8835C57.3208 49.1048 57.6125 49.2255 57.9243 49.2255C58.2361 49.2255 58.5278 49.1048 58.7491 48.8835L66.7052 40.9274C69.5417 38.0909 69.5417 33.4741 66.7052 30.6377C65.3373 29.2697 63.5066 28.5154 61.5654 28.5154C59.6241 28.5154 57.7935 29.2697 56.4256 30.6377L44.3053 42.758L38.6626 37.1152C37.2946 35.7373 35.464 34.9829 33.5227 34.9829C31.5815 34.9829 29.7609 35.7373 28.3829 37.1152C27.0049 38.4832 26.2506 40.3138 26.2506 42.2551C26.2506 44.1963 27.0049 46.0169 28.3829 47.3949L39.1755 58.1875Z" fill="url(#paint0_linear_2323_1982)"/>
<defs>
<linearGradient id="paint0_linear_2323_1982" x1="12.9504" y1="-6.42929" x2="96.982" y2="72.6717" gradientUnits="userSpaceOnUse">
<stop stop-color="#E6007A"/>
<stop offset="0.21" stop-color="#703AC2"/>
<stop offset="0.46" stop-color="#0070EB"/>
<stop offset="0.77" stop-color="#0297FB"/>
<stop offset="1" stop-color="#0AE2FF"/>
</linearGradient>
</defs>
</svg>

<svg xmlns="http://www.w3.org/2000/svg" width="100" height="100" fill="none"><path fill="url(#a)" fill-rule="evenodd" d="M44.436 99.98c-4.98 0-9.033-4.054-9.033-9.032v-.222l-.21-.11a4.116 4.116 0 0 1-2.847-3.913V84.72h-.302c-.694 0-1.227-.523-1.227-1.176 0-.654.523-1.177 1.177-1.177h.301l.05-.302v-3.46h-4.928a1.178 1.178 0 0 1-1.177-1.177c0-.654.523-1.177 1.177-1.177h1.458l-.22-.442a4.865 4.865 0 0 1-.232-.523l-3.59-9.586c-1.017-2.706-2.586-5.22-4.648-7.463-6.015-6.498-9.274-14.977-9.183-23.859.07-6.759 2.062-13.277 5.763-18.859.221-.332.584-.523.976-.523.231 0 .453.07.644.191a1.164 1.164 0 0 1 .332 1.62A32.328 32.328 0 0 0 13.345 34.4a32.29 32.29 0 0 0 8.56 22.269c2.273 2.474 4.003 5.24 5.12 8.237l3.59 9.586a2.779 2.779 0 0 0 2.586 1.79h6.638c.644 0 1.177.523 1.177 1.177s-.523 1.177-1.177 1.177H34.7v3.762h22.068v-3.762H46.72a1.178 1.178 0 0 1-1.177-1.177c0-.654.523-1.177 1.177-1.177h11.547a2.764 2.764 0 0 0 2.585-1.79l3.45-9.193c1.217-3.26 2.987-6.146 5.24-8.6a32.302 32.302 0 0 0 8.58-21.957c0-17.864-14.534-32.388-32.388-32.388-8.59 0-16.666 3.299-22.752 9.294a1.147 1.147 0 0 1-.825.332c-.311 0-.613-.121-.834-.353a1.167 1.167 0 0 1 .01-1.66C27.86 3.542 36.53 0 45.733 0c19.151 0 34.732 15.58 34.732 34.731 0 8.761-3.27 17.12-9.204 23.557-2.052 2.223-3.66 4.858-4.777 7.826l-3.45 9.193c-.07.18-.151.352-.232.523l-.221.442h1.459c.643 0 1.176.523 1.176 1.177s-.523 1.177-1.176 1.177h-4.93v3.762h.303c.694 0 1.227.523 1.227 1.177s-.523 1.177-1.177 1.177h-.302l-.05.301v1.68c0 1.79-1.147 3.36-2.847 3.913l-.21.07v.221c0 5.02-4.054 9.073-9.033 9.073h-2.595l.01-.02Zm-6.689-8.841c.1 3.58 3.098 6.497 6.689 6.497h2.595c3.59 0 6.588-2.917 6.689-6.497v-.312H37.757v.312h-.01Zm-3.048-4.426c0 .976.795 1.77 1.77 1.77h18.518c.976 0 1.77-.794 1.77-1.77V84.73H34.7v1.982Zm47.576-69.885c-.412 0-.785-.212-.996-.554a1.14 1.14 0 0 1-.14-.885c.07-.301.26-.563.522-.724l2.596-1.61a1.24 1.24 0 0 1 .613-.18c.412 0 .785.21.996.553.16.261.221.583.14.885-.07.302-.26.563-.522.724l-2.596 1.61a1.24 1.24 0 0 1-.613.18Zm-6.558-7.222c.171.09.362.14.554.14h.01c.432 0 .834-.24 1.036-.623l1.438-2.686a1.16 1.16 0 0 0 .09-.895 1.19 1.19 0 0 0-1.126-.835c-.432 0-.835.242-1.036.624l-1.438 2.686a1.16 1.16 0 0 0-.09.895c.08.301.29.543.562.694Zm10.049 15.821a1.166 1.166 0 0 1-1.167-1.156c0-.644.513-1.177 1.156-1.187l3.048-.03c.654 0 1.177.523 1.187 1.157 0 .311-.12.603-.332.834a1.166 1.166 0 0 1-.825.352l-3.047.03h-.02Zm-46.59 32.76a7.228 7.228 0 0 0 5.14 2.123l-.02-.01a7.227 7.227 0 0 0 5.139-2.123l4.395-4.395c.222-.221.343-.513.343-.825 0-.312-.121-.603-.343-.825a1.157 1.157 0 0 0-.824-.342c-.312 0-.604.121-.825.342l-4.395 4.396a4.9 4.9 0 0 1-3.49 1.448 4.9 4.9 0 0 1-3.491-1.448L30.022 45.745a4.9 4.9 0 0 1-1.448-3.49 4.9 4.9 0 0 1 1.448-3.49 4.932 4.932 0 0 1 3.49-1.438c1.318 0 2.566.512 3.49 1.438l6.478 6.477c.222.222.514.342.825.342.312 0 .604-.12.825-.342l12.945-12.945a4.932 4.932 0 0 1 3.49-1.438c1.318 0 2.565.513 3.49 1.438a4.932 4.932 0 0 1 1.439 3.49 4.915 4.915 0 0 1-1.438 3.49L57.1 47.235a1.156 1.156 0 0 0-.343.825c0 .312.121.603.343.825.22.22.512.341.824.341.312 0 .604-.12.825-.342l7.956-7.956c2.837-2.836 2.837-7.453 0-10.29a7.227 7.227 0 0 0-5.14-2.122 7.227 7.227 0 0 0-5.14 2.123l-12.12 12.12-5.642-5.643a7.196 7.196 0 0 0-5.14-2.132 7.213 7.213 0 0 0-5.14 2.132 7.196 7.196 0 0 0-2.132 5.14c0 1.941.754 3.762 2.132 5.14l10.793 10.792Z" clip-rule="evenodd"/><defs><linearGradient id="a" x1="12.95" x2="96.982" y1="-6.429" y2="72.672" gradientUnits="userSpaceOnUse"><stop stop-color="#E6007A"/><stop offset=".21" stop-color="#703AC2"/><stop offset=".46" stop-color="#0070EB"/><stop offset=".77" stop-color="#0297FB"/><stop offset="1" stop-color="#0AE2FF"/></linearGradient></defs></svg>
